X: 41149
T: Triplets For Breakfast
R: reel
M: 4/4
K: Dmajor
FE|:DEFD EFGE|FA^GA (3AAA FE|DEFD EFGE [1 FDDC (3DDD FE:|2 FDDC (3DDD Ac||
|:dece dece|Addc (3ddd Ac|dece dfeg|1 fddc (3ddd Ac:|2 fddc (3dddd2||

